public/mascots/nj/bunny-ditto-128x128.svg

<svg xmlns="http://www.w3.org/2000/svg" width="128" height="128" viewBox="0 0 128 128"><path fill="none" stroke="#00f" stroke-dasharray="4,2" stroke-linecap="round" stroke-linejoin="round" stroke-width="2.5" d="M48 48q-8-16-4-28 8-8 16 12 4 12 0 20M68 52q-4-8 0-20 8-20 16-12 4 12-4 28"/><ellipse cx="64" cy="64" fill="none" stroke="#00f" stroke-dasharray="5,3" stroke-width="2.5" rx="28" ry="24"/><ellipse cx="64" cy="72" fill="none" stroke="#00f" stroke-width="2" rx="12" ry="10"/><ellipse cx="64" cy="68" fill="#00f" rx="5" ry="4"/><circle cx="50" cy="58" r="4" fill="none" stroke="#00f" stroke-width="2"/><circle cx="78" cy="58" r="4" fill="none" stroke="#00f" stroke-width="2"/><path fill="none" stroke="#00f" stroke-linecap="round" stroke-width="2" d="M56 80q4 2 8 0 4 2 8 0"/><path fill="none" stroke="#00f" stroke-dasharray="5,3" stroke-linecap="round" stroke-linejoin="round" stroke-width="2.5" d="M40 88q-4 12 24 20 28-8 24-20"/><ellipse cx="40" cy="100" fill="none" stroke="#00f" stroke-width="2" rx="7" ry="9"/><ellipse cx="88" cy="100" fill="none" stroke="#00f" stroke-width="2" rx="7" ry="9"/></svg>

<svg xmlns="http://www.w3.org/2000/svg" viewBox="0 0 128 128" width="128" height="128">
  <!-- Wavy morphing ears -->
  <path d="M48 48 Q40 32 44 20 Q52 12 60 32 Q64 44 60 52" 
        fill="none" stroke="#0000FF" stroke-width="2.5" stroke-linecap="round" stroke-linejoin="round" stroke-dasharray="4,2"/>
  <path d="M68 52 Q64 44 68 32 Q76 12 84 20 Q88 32 80 48" 
        fill="none" stroke="#0000FF" stroke-width="2.5" stroke-linecap="round" stroke-linejoin="round" stroke-dasharray="4,2"/>
  <!-- Morphing head -->
  <ellipse cx="64" cy="64" rx="28" ry="24" fill="none" stroke="#0000FF" stroke-width="2.5" stroke-dasharray="5,3"/>
  <ellipse cx="64" cy="72" rx="12" ry="10" fill="none" stroke="#0000FF" stroke-width="2"/>
  <ellipse cx="64" cy="68" rx="5" ry="4" fill="#0000FF"/>
  <!-- Dreamy eyes -->
  <circle cx="50" cy="58" r="4" fill="none" stroke="#0000FF" stroke-width="2"/>
  <circle cx="78" cy="58" r="4" fill="none" stroke="#0000FF" stroke-width="2"/>
  <!-- Wavy mouth -->
  <path d="M56 80 Q60 82 64 80 Q68 82 72 80" fill="none" stroke="#0000FF" stroke-width="2" stroke-linecap="round"/>
  <!-- Flowing body -->
  <path d="M40 88 Q36 100 64 108 Q92 100 88 88" 
        fill="none" stroke="#0000FF" stroke-width="2.5" stroke-linecap="round" stroke-linejoin="round" stroke-dasharray="5,3"/>
  <ellipse cx="40" cy="100" rx="7" ry="9" fill="none" stroke="#0000FF" stroke-width="2"/>
  <ellipse cx="88" cy="100" rx="7" ry="9" fill="none" stroke="#0000FF" stroke-width="2"/>
</svg>
